!! 00000] TT[WS
!!!OTL: Buduan qiao wugeng
!!!ARE: Asia, China, Shanxi Lishan
!! Ethnic Group: Han
!! WII, 138
!!!SCT: J0611
!!!YEM: Copyright 1995, estate of Helmut Schaffrath.
**kern
*ICvox
*Ivox
*M2/4
*k[f#]
*G:
{4a
8dd
8b
=1
4dd
8e
8g
=2
4a
4a
=3
4dd
8gg
8ee
=4
2dd}
=5
{8b
16a
16b
8dd
8b
=6
8a
8g
8e
8d
=7
4g
4g
=8
8a
8dd
8b
8a
=9
4g
8e
8a
=10
2g}
=11
{8dd
8gg
8ee
8dd
=12
4.cc
8dd
=13
8gg
8gg
8ee
8dd
=14
2dd}
=15
{8b
16a
16b
8dd
8b
=16
8a
8g
8e
8d
=17
4g
4g}
=18
{8e
8d
8g
8b
=19
8a
8g
8e
8g
=20
2a}
=21
{4dd
8ee
8dd
=22
8dd
8a
4dd
=23
8.dd
16b
8a
8g
=24
8g
8e
4a}
=25
{8g
8e
16d
16g
16ee
16b
=26
4d
4d
=27
8b
8a
8g
16a
16b
=28
4.d
8e
=29
2d}
==
!!!AGN: Xiaodiao. Qingge, Aisu
!!!ONB: ESAC (Essen Associative Code) Database: CHINA
!!!AMT: simple duple
!!!AIN: vox
!!!EED: Helmut Schaffrath
!!!EEV: 1.0
*-
